docs/.gitbook/assets/icon-eraser-16@dark.svg

<svg width="32" height="32" viewBox="0 0 16 16" fill="none" xmlns="http://www.w3.org/2000/svg">
<rect x="0" y="0" width="16" height="16" fill="#181c1f"/>
<path fill-rule="evenodd" clip-rule="evenodd" d="M11.879 2.86948C11.3921 2.37906 10.5986 2.37652 10.1085 2.86382L8.51205 4.45139L11.5599 7.49927L13.1447 5.89164C13.1448 5.89156 13.1449 5.89148 13.1449 5.8914C13.6235 5.40468 13.6216 4.62471 13.1407 4.14028L11.879 2.86948ZM10.5069 8.56752L7.44843 5.50909L2.81705 10.1146L5.94969 13.1904L10.5069 8.56752ZM7.75081 13.5H14.25C14.6642 13.5 15 13.8358 15 14.25C15 14.6642 14.6642 15 14.25 15H5.95833C5.7618 15 5.57312 14.9229 5.43288 14.7852L1.22455 10.6532C1.0815 10.5127 1.00064 10.3209 1 10.1204C0.999366 9.91994 1.07901 9.72757 1.22116 9.58621L6.92106 3.9181L9.05084 1.8002C10.1286 0.728426 11.8726 0.733996 12.9435 1.81265L14.2051 3.08346C15.2649 4.15094 15.2689 5.87119 14.214 6.94355L14.2135 6.94411L12.0979 9.09026L7.75081 13.5Z" fill="#fff"/>
</svg>

<svg xmlns="http://www.w3.org/2000/svg" width="32" height="32" fill="none" viewBox="0 0 16 16"><path fill="#181c1f" d="M0 0h16v16H0z"/><path fill="#fff" fill-rule="evenodd" d="M11.879 2.87a1.25 1.25 0 0 0-1.77-.006L8.512 4.45 11.56 7.5l1.585-1.607a1.245 1.245 0 0 0-.004-1.752zm-1.372 5.698L7.448 5.509l-4.631 4.606L5.95 13.19zM7.75 13.5h6.499a.75.75 0 0 1 0 1.5H5.958a.75.75 0 0 1-.525-.215l-4.208-4.132a.75.75 0 0 1-.004-1.067l5.7-5.668L9.051 1.8a2.75 2.75 0 0 1 3.893.013l1.261 1.27a2.745 2.745 0 0 1 .009 3.86v.001L12.098 9.09z" clip-rule="evenodd"/></svg>
